style-guide/assets/wds-icons-bold-tiny.svg

<svg xmlns="http://www.w3.org/2000/svg" xmlns:xlink="http://www.w3.org/1999/xlink" viewBox="0 0 12 12">
  <defs>
    <path id="bold-a" d="M4 4h2a1.001 1.001 0 0 0 0-2H4v2zm0 6h3c1.103 0 2-.896 2-2 0-1.103-.897-2-2-2H4v4zm3 2H3a1 1 0 0 1-1-1V1a1 1 0 0 1 1-1h3a3.004 3.004 0 0 1 2.671 4.366A4.007 4.007 0 0 1 11 8c0 2.206-1.794 4-4 4z"/>
  </defs>
  <use fill-rule="evenodd" xlink:href="#bold-a"/>
</svg>

<svg xmlns="http://www.w3.org/2000/svg" xmlns:xlink="http://www.w3.org/1999/xlink" width="12" height="12" viewBox="0 0 12 12">
  <defs>
    <path id="bold-a" d="M4,4 L6,4 C6.551,4 7,3.552 7,3 C7,2.449 6.551,2 6,2 L4,2 L4,4 Z M4,10 L7,10 C8.103,10 9,9.104 9,8 C9,6.897 8.103,6 7,6 L4,6 L4,10 Z M7,12 L3,12 C2.448,12 2,11.553 2,11 L2,1 C2,0.448 2.448,0 3,0 L6,0 C7.654,0 9,1.346 9,3 C9,3.492 8.881,3.956 8.671,4.366 C10.044,5 11,6.391 11,8 C11,10.206 9.206,12 7,12 Z"/>
  </defs>
  <use fill-rule="evenodd" xlink:href="#bold-a"/>
</svg>
